svgs/sharp-regular/file-slash.svg

<svg xmlns="http://www.w3.org/2000/svg" viewBox="0 0 640 512"><!--! Font Awesome Pro 6.6.0 by @fontawesome - https://fontawesome.com License - https://fontawesome.com/license (Commercial License) Copyright 2024 Fonticons, Inc. --><path d="M464 464l0-2.4 48 37.8 0 12.6-48 0-288 0-48 0 0-48 0-267.1 48 37.8L176 464l288 0zm48-89.3l108.9 84.6 19 14.7-29.4 37.9-19-14.7L19 52.7 0 38 29.4 .1l19 14.7L128 76.6 128 48l0-48 48 0L384 0 512 128l0 246.7zm-48-37.3L464 160l-112 0 0-112L176 48l0 65.9L464 337.5z"/></svg>

<svg xmlns="http://www.w3.org/2000/svg" viewBox="0 0 640 512"><!--! Font Awesome Pro 6.4.0 by @fontawesome - https://fontawesome.com License - https://fontawesome.com/license (Commercial License) Copyright 2023 Fonticons, Inc. --><path d="M464 464v-2.4l48 37.8V512H464 176 128V464 196.9l48 37.8V464H464zm48-89.3l108.9 84.6 19 14.7-29.4 37.9-19-14.7L19 52.7 0 38 29.4 .1l19 14.7L128 76.6V48 0h48H384L512 128V374.7zm-48-37.3V160H352V48H176v65.9L464 337.5z"/></svg>
